Obsidian-SemiLight/mimetypes/16/audio-x-generic-symbolic.svg

<svg height="16" width="16" xmlns="http://www.w3.org/2000/svg"><path d="m9 0v5 5 .75.15625c-.6355168-.55244-1.530234-.90625-2.5-.90625-1.939532 0-3.5 1.376509-3.5 3.0625s1.560468 3.03125 3.5 3.03125c1.8183113 0 3.3180259-1.181742 3.5-2.71875v-.5-.375-.5-2-6c3.992305.1870785 4.291016 3.941406 3.8125 5.28125 1.296171-3.7190978-.494957-6.0196552-1.96875-7.125-1.5-1.125-1.84375-2.15625-1.84375-2.15625z" fill="#bebebe"/></svg>

<?xml version="1.0" encoding="UTF-8" standalone="no"?>
<!-- Created with Inkscape (http://www.inkscape.org/) -->

<svg
   xmlns:dc="http://purl.org/dc/elements/1.1/"
   xmlns:cc="http://creativecommons.org/ns#"
   xmlns:rdf="http://www.w3.org/1999/02/22-rdf-syntax-ns#"
   xmlns:svg="http://www.w3.org/2000/svg"
   xmlns="http://www.w3.org/2000/svg"
   xmlns:xlink="http://www.w3.org/1999/xlink"
   xmlns:sodipodi="http://sodipodi.sourceforge.net/DTD/sodipodi-0.dtd"
   xmlns:inkscape="http://www.inkscape.org/namespaces/inkscape"
   width="16"
   height="16"
   id="svg2"
   sodipodi:version="0.32"
   inkscape:version="0.48.1 r9760"
   version="1.0"
   sodipodi:docname="audio-x-generic-symbolic.svg"
   inkscape:output_extension="org.inkscape.output.svg.inkscape">
  <defs
     id="defs4">
    <linearGradient
       id="linearGradient3171"
       inkscape:collect="always">
      <stop
         id="stop3173"
         offset="0"
         style="stop-color:#000000;stop-opacity:1;" />
      <stop
         id="stop3175"
         offset="1"
         style="stop-color:#000000;stop-opacity:0;" />
    </linearGradient>
    <linearGradient
       inkscape:collect="always"
       xlink:href="#linearGradient3171"
       id="linearGradient3342"
       gradientUnits="userSpaceOnUse"
       x1="4.9375"
       y1="11"
       x2="8"
       y2="11" />
    <linearGradient
       id="linearGradient3266"
       inkscape:collect="always">
      <stop
         id="stop3268"
         offset="0"
         style="stop-color:#505050;stop-opacity:1;" />
      <stop
         id="stop3270"
         offset="1"
         style="stop-color:#505050;stop-opacity:0;" />
    </linearGradient>
    <linearGradient
       inkscape:collect="always"
       xlink:href="#linearGradient3266"
       id="linearGradient3340"
       gradientUnits="userSpaceOnUse"
       gradientTransform="translate(2,0)"
       x1="3.8890872"
       y1="15.656685"
       x2="4.3288512"
       y2="12.842732" />
    <linearGradient
       inkscape:collect="always"
       xlink:href="#linearGradient3242"
       id="linearGradient3338"
       gradientUnits="userSpaceOnUse"
       x1="3.5"
       y1="14.03125"
       x2="3.5"
       y2="7.9958577" />
    <linearGradient
       id="linearGradient3242">
      <stop
         id="stop3244"
         offset="0"
         style="stop-color:#505050;stop-opacity:1;" />
      <stop
         style="stop-color:#a7a7a7;stop-opacity:1;"
         offset="0.5"
         id="stop3260" />
      <stop
         style="stop-color:#ffffff;stop-opacity:1;"
         offset="0.69999999"
         id="stop3250" />
      <stop
         id="stop3246"
         offset="1"
         style="stop-color:#c8c8c8;stop-opacity:1;" />
    </linearGradient>
    <linearGradient
       inkscape:collect="always"
       xlink:href="#linearGradient3242"
       id="linearGradient3336"
       gradientUnits="userSpaceOnUse"
       x1="7.6126604"
       y1="14.756505"
       x2="5.5251265"
       y2="7.243495" />
    <inkscape:perspective
       sodipodi:type="inkscape:persp3d"
       inkscape:vp_x="0 : 11 : 1"
       inkscape:vp_y="0 : 1000 : 0"
       inkscape:vp_z="22 : 11 : 1"
       inkscape:persp3d-origin="11 : 7.3333333 : 1"
       id="perspective23" />
    <linearGradient
       id="ShadowGradient">
      <stop
         style="stop-color:#000000;stop-opacity:1;"
         offset="0"
         id="stop3393" />
      <stop
         style="stop-color:#000000;stop-opacity:0;"
         offset="1"
         id="stop3395" />
    </linearGradient>
    <linearGradient
       id="StandardGradient">
      <stop
         style="stop-color:#000000;stop-opacity:1;"
         offset="0"
         id="stop3389" />
      <stop
         style="stop-color:#646464;stop-opacity:1;"
         offset="1"
         id="stop3391" />
    </linearGradient>
    <linearGradient
       inkscape:collect="always"
       xlink:href="#StandardGradient"
       id="linearGradient3381"
       x1="9.9375"
       y1="3"
       x2="9.9375"
       y2="19.017569"
       gradientUnits="userSpaceOnUse" />
    <linearGradient
       inkscape:collect="always"
       xlink:href="#StandardGradient"
       id="linearGradient3782"
       x1="9.75"
       y1="5"
       x2="9.75"
       y2="19.055693"
       gradientUnits="userSpaceOnUse"
       gradientTransform="translate(0,-1)" />
    <linearGradient
       inkscape:collect="always"
       xlink:href="#StandardGradient"
       id="linearGradient2400"
       gradientUnits="userSpaceOnUse"
       gradientTransform="translate(-9,10)"
       x1="9.75"
       y1="5"
       x2="9.75"
       y2="19.055693" />
    <linearGradient
       inkscape:collect="always"
       xlink:href="#StandardGradient"
       id="linearGradient3174"
       gradientUnits="userSpaceOnUse"
       gradientTransform="matrix(0.7071068,0.7071068,-0.7071068,0.7071068,0.8856249,4.1536343)"
       x1="9.75"
       y1="5"
       x2="9.75"
       y2="19.055693" />
    <linearGradient
       inkscape:collect="always"
       xlink:href="#StandardGradient"
       id="linearGradient3178"
       gradientUnits="userSpaceOnUse"
       gradientTransform="matrix(0,1,-1,0,12.009822,7.0098219)"
       x1="9.75"
       y1="5"
       x2="9.75"
       y2="19.055693" />
    <linearGradient
       inkscape:collect="always"
       xlink:href="#StandardGradient"
       id="linearGradient3182"
       gradientUnits="userSpaceOnUse"
       gradientTransform="matrix(-0.7071068,0.7071068,-0.7071068,-0.7071068,17.856188,16.895447)"
       x1="9.75"
       y1="5"
       x2="9.75"
       y2="19.055693" />
    <linearGradient
       inkscape:collect="always"
       xlink:href="#StandardGradient"
       id="linearGradient3186"
       gradientUnits="userSpaceOnUse"
       gradientTransform="matrix(-1,0,0,-1,15,28.019644)"
       x1="9.75"
       y1="5"
       x2="9.75"
       y2="19.055693" />
    <linearGradient
       inkscape:collect="always"
       xlink:href="#StandardGradient"
       id="linearGradient3190"
       gradientUnits="userSpaceOnUse"
       gradientTransform="matrix(-0.7071068,-0.7071068,0.7071068,-0.7071068,5.1143752,33.866009)"
       x1="9.75"
       y1="5"
       x2="9.75"
       y2="19.055693" />
    <linearGradient
       inkscape:collect="always"
       xlink:href="#StandardGradient"
       id="linearGradient3194"
       gradientUnits="userSpaceOnUse"
       gradientTransform="matrix(0,-1,1,0,-6.0098215,31.009821)"
       x1="9.75"
       y1="5"
       x2="9.75"
       y2="19.055693" />
    <linearGradient
       inkscape:collect="always"
       xlink:href="#StandardGradient"
       id="linearGradient3198"
       gradientUnits="userSpaceOnUse"
       gradientTransform="matrix(0.7071068,-0.7071068,0.7071068,0.7071068,-11.856186,21.124197)"
       x1="9.75"
       y1="5"
       x2="9.75"
       y2="19.055693" />
    <linearGradient
       inkscape:collect="always"
       xlink:href="#StandardGradient"
       id="linearGradient3224"
       gradientUnits="userSpaceOnUse"
       gradientTransform="matrix(0.7071068,0.7071068,-0.7071068,0.7071068,11.292893,-6.263456)"
       x1="9.75"
       y1="5"
       x2="9.75"
       y2="19.055693" />
    <linearGradient
       inkscape:collect="always"
       xlink:href="#StandardGradient"
       id="linearGradient2407"
       gradientUnits="userSpaceOnUse"
       gradientTransform="translate(-22,-5)"
       x1="9.75"
       y1="5"
       x2="9.75"
       y2="19.055693" />
    <linearGradient
       inkscape:collect="always"
       xlink:href="#StandardGradient"
       id="linearGradient3228"
       x1="6.7010484"
       y1="1"
       x2="6.7010484"
       y2="15.001111"
       gradientUnits="userSpaceOnUse" />
    <linearGradient
       inkscape:collect="always"
       xlink:href="#linearGradient3171"
       id="linearGradient2630"
       gradientUnits="userSpaceOnUse"
       x1="4.9375"
       y1="11"
       x2="8"
       y2="11"
       gradientTransform="translate(4.8043455e-2,-1.0546018)" />
    <linearGradient
       inkscape:collect="always"
       xlink:href="#linearGradient3266"
       id="linearGradient2633"
       gradientUnits="userSpaceOnUse"
       gradientTransform="translate(2.0480435,-1.0546018)"
       x1="3.8890872"
       y1="15.656685"
       x2="4.3288512"
       y2="12.842732" />
    <linearGradient
       inkscape:collect="always"
       xlink:href="#linearGradient3242"
       id="linearGradient2636"
       gradientUnits="userSpaceOnUse"
       x1="3.5"
       y1="14.03125"
       x2="3.5"
       y2="7.9958577"
       gradientTransform="translate(4.8043455e-2,-1.0546018)" />
    <linearGradient
       inkscape:collect="always"
       xlink:href="#linearGradient3242"
       id="linearGradient2639"
       gradientUnits="userSpaceOnUse"
       x1="7.6126604"
       y1="14.756505"
       x2="5.5251265"
       y2="7.243495"
       gradientTransform="translate(4.8043455e-2,-1.0546018)" />
    <linearGradient
       inkscape:collect="always"
       xlink:href="#linearGradient3242"
       id="linearGradient2641"
       gradientUnits="userSpaceOnUse"
       gradientTransform="translate(-2,-2.9999999)"
       x1="7.6126604"
       y1="14.756505"
       x2="5.5251265"
       y2="7.243495" />
    <linearGradient
       inkscape:collect="always"
       xlink:href="#StandardGradient"
       id="linearGradient3421"
       x1="8.4375"
       y1="1"
       x2="8.4375"
       y2="15.007554"
       gradientUnits="userSpaceOnUse" />
    <linearGradient
       inkscape:collect="always"
       xlink:href="#StandardGradient"
       id="linearGradient2433"
       gradientUnits="userSpaceOnUse"
       x1="8.4375"
       y1="1"
       x2="8.4375"
       y2="15.007554"
       gradientTransform="matrix(1.2397314,0,0,1,-2.1450456,0)" />
    <linearGradient
       inkscape:collect="always"
       xlink:href="#StandardGradient"
       id="linearGradient2435"
       gradientUnits="userSpaceOnUse"
       x1="8.4375"
       y1="1"
       x2="8.4375"
       y2="15.007554"
       gradientTransform="matrix(1.3065009,0,0,1,-3.6644889,0)" />
    <linearGradient
       inkscape:collect="always"
       xlink:href="#StandardGradient"
       id="linearGradient2437"
       gradientUnits="userSpaceOnUse"
       x1="8.4375"
       y1="1"
       x2="8.4375"
       y2="15.007554"
       gradientTransform="matrix(1.315615,0,0,1,-4.7200494,0)" />
    <inkscape:perspective
       id="perspective2849"
       inkscape:persp3d-origin="0.5 : 0.33333333 : 1"
       inkscape:vp_z="1 : 0.5 : 1"
       inkscape:vp_y="0 : 1000 : 0"
       inkscape:vp_x="0 : 0.5 : 1"
       sodipodi:type="inkscape:persp3d" />
    <linearGradient
       inkscape:collect="always"
       xlink:href="#StandardGradient"
       id="linearGradient2898"
       gradientUnits="userSpaceOnUse"
       x1="8.4375"
       y1="1"
       x2="8.4375"
       y2="15.007554" />
    <inkscape:perspective
       id="perspective2917"
       inkscape:persp3d-origin="0.5 : 0.33333333 : 1"
       inkscape:vp_z="1 : 0.5 : 1"
       inkscape:vp_y="0 : 1000 : 0"
       inkscape:vp_x="0 : 0.5 : 1"
       sodipodi:type="inkscape:persp3d" />
    <linearGradient
       inkscape:collect="always"
       xlink:href="#linearGradient4081"
       id="linearGradient3538"
       gradientUnits="userSpaceOnUse"
       gradientTransform="translate(1,0)"
       x1="16.5"
       y1="19.542921"
       x2="16.5"
       y2="2.5" />
    <linearGradient
       id="linearGradient4081">
      <stop
         style="stop-color:#aaaaaa;stop-opacity:1;"
         offset="0"
         id="stop4083" />
      <stop
         style="stop-color:#f0f0f0;stop-opacity:1;"
         offset="1"
         id="stop4085" />
    </linearGradient>
    <linearGradient
       inkscape:collect="always"
       xlink:href="#linearGradient4081"
       id="linearGradient3542"
       gradientUnits="userSpaceOnUse"
       gradientTransform="translate(-4,-3)"
       x1="10.50519"
       y1="15.28125"
       x2="10.50519"
       y2="6.7458849" />
    <linearGradient
       id="linearGradient2926">
      <stop
         style="stop-color:#aaaaaa;stop-opacity:1;"
         offset="0"
         id="stop2928" />
      <stop
         style="stop-color:#f0f0f0;stop-opacity:1;"
         offset="1"
         id="stop2930" />
    </linearGradient>
    <linearGradient
       inkscape:collect="always"
       xlink:href="#linearGradient4081"
       id="linearGradient3540"
       gradientUnits="userSpaceOnUse"
       gradientTransform="translate(-4,-3)"
       x1="14.524625"
       y1="17.41902"
       x2="14.524625"
       y2="4.625" />
    <linearGradient
       id="linearGradient2933">
      <stop
         style="stop-color:#aaaaaa;stop-opacity:1;"
         offset="0"
         id="stop2935" />
      <stop
         style="stop-color:#f0f0f0;stop-opacity:1;"
         offset="1"
         id="stop2937" />
    </linearGradient>
    <linearGradient
       y2="2.5"
       x2="16.5"
       y1="19.542921"
       x1="16.5"
       gradientTransform="translate(-4,-3)"
       gradientUnits="userSpaceOnUse"
       id="linearGradient2942"
       xlink:href="#linearGradient4081"
       inkscape:collect="always" />
    <linearGradient
       inkscape:collect="always"
       xlink:href="#linearGradient4081"
       id="linearGradient2945"
       gradientUnits="userSpaceOnUse"
       gradientTransform="translate(-4,-3)"
       x1="16.5"
       y1="19.542921"
       x2="16.5"
       y2="2.5" />
    <linearGradient
       inkscape:collect="always"
       xlink:href="#linearGradient4081"
       id="linearGradient2948"
       gradientUnits="userSpaceOnUse"
       gradientTransform="matrix(1,0,0,0.94352368,-4,-2.3752307)"
       x1="16.5"
       y1="19.542921"
       x2="16.5"
       y2="2.5" />
    <linearGradient
       inkscape:collect="always"
       xlink:href="#StandardGradient"
       id="linearGradient2950"
       gradientUnits="userSpaceOnUse"
       x1="8.4375"
       y1="1"
       x2="8.4375"
       y2="15.007554" />
    <linearGradient
       inkscape:collect="always"
       xlink:href="#StandardGradient"
       id="linearGradient3729"
       gradientUnits="userSpaceOnUse"
       x1="8.4375"
       y1="1"
       x2="8.4375"
       y2="15.007554"
       gradientTransform="translate(0,1)" />
    <linearGradient
       inkscape:collect="always"
       xlink:href="#StandardGradient"
       id="linearGradient3731"
       gradientUnits="userSpaceOnUse"
       x1="8.4375"
       y1="1"
       x2="8.4375"
       y2="15.007554" />
    <inkscape:perspective
       id="perspective3777"
       inkscape:persp3d-origin="0.5 : 0.33333333 : 1"
       inkscape:vp_z="1 : 0.5 : 1"
       inkscape:vp_y="0 : 1000 : 0"
       inkscape:vp_x="0 : 0.5 : 1"
       sodipodi:type="inkscape:persp3d" />
    <linearGradient
       id="StandardGradient-1"
       gradientTransform="scale(1.1467263,0.8720476)"
       x1="7.1904788"
       y1="6.9551144"
       x2="7.1904788"
       y2="18.319494"
       gradientUnits="userSpaceOnUse">
      <stop
         style="stop-color:#000000;stop-opacity:0.86274511;"
         offset="0"
         id="stop3280" />
      <stop
         style="stop-color:#000000;stop-opacity:0.47058824;"
         offset="1"
         id="stop3282" />
    </linearGradient>
    <linearGradient
       y2="18.319494"
       x2="7.1904788"
       y1="6.9551144"
       x1="7.1904788"
       gradientTransform="matrix(1.1467263,0,0,0.8720476,2.5196744,8.5383193)"
       gradientUnits="userSpaceOnUse"
       id="linearGradient3785"
       xlink:href="#StandardGradient-1"
       inkscape:collect="always" />
    <linearGradient
       inkscape:collect="always"
       xlink:href="#StandardGradient-1"
       id="linearGradient3804"
       gradientUnits="userSpaceOnUse"
       x1="8.4375"
       y1="1"
       x2="8.4375"
       y2="15.007554" />
    <linearGradient
       inkscape:collect="always"
       xlink:href="#StandardGradient-1"
       id="linearGradient3808"
       gradientUnits="userSpaceOnUse"
       x1="8.4375"
       y1="1"
       x2="8.4375"
       y2="15.007554"
       gradientTransform="translate(0,1)" />
    <linearGradient
       inkscape:collect="always"
       xlink:href="#StandardGradient-1"
       id="linearGradient3812"
       gradientUnits="userSpaceOnUse"
       x1="8.4375"
       y1="1"
       x2="8.4375"
       y2="15.007554" />
    <linearGradient
       inkscape:collect="always"
       xlink:href="#StandardGradient-1"
       id="linearGradient3817"
       gradientUnits="userSpaceOnUse"
       x1="8.4375"
       y1="1"
       x2="8.4375"
       y2="15.007554"
       gradientTransform="translate(-20,0)" />
    <clipPath
       clipPathUnits="userSpaceOnUse"
       id="clipPath3824">
      <path
         style="fill:#ff00ff;fill-opacity:1;stroke:none;display:inline"
         d="m -20,0 0,16 16,0 0,-16 -16,0 z M -7.625,1 C -5.995915,2.9288438 -5,5.3432918 -5,8 c 1e-6,2.708425 -1.032388,5.178784 -2.71875,7.125 l -1.5,-1.25 c 1.364366,-1.613056 2.1875,-3.651801 2.1875,-5.875 0,-2.1639699 -0.76332,-4.1574263 -2.0625,-5.75 L -7.625,1 z M -9.8125,2.84375 C -8.662551,4.2737473 -8,6.0683029 -8,8 c 0,1.9878056 -0.722863,3.803569 -1.9375,5.25 l -1.5,-1.28125 C -10.539955,10.861821 -10,9.5005507 -10,8 -10,6.5562172 -10.506676,5.24065 -11.34375,4.15625 l 1.53125,-1.3125 z m -5.1875,1.125 0,8 L -17,10 -18.5,10 C -18.777,10 -19,9.777 -19,9.5 l 0,-3 C -19,6.223 -18.777,6 -18.5,6 l 1.5,0 2,-2.03125 z M -12.0625,4.75 C -11.393055,5.6663669 -11,6.8041149 -11,8 c 0,1.2594208 -0.420217,2.432325 -1.15625,3.375 L -13.6875,10.0625 C -13.263995,9.4700266 -13,8.7691247 -13,8 -13,7.2815285 -13.219346,6.6300346 -13.59375,6.0625 L -12.0625,4.75 z"
         id="path3826" />
    </clipPath>
    <inkscape:perspective
       id="perspective2945"
       inkscape:persp3d-origin="0.5 : 0.33333333 : 1"
       inkscape:vp_z="1 : 0.5 : 1"
       inkscape:vp_y="0 : 1000 : 0"
       inkscape:vp_x="0 : 0.5 : 1"
       sodipodi:type="inkscape:persp3d" />
    <linearGradient
       inkscape:collect="always"
       xlink:href="#StandardGradient-6"
       id="linearGradient3750"
       x1="11"
       y1="3"
       x2="11"
       y2="20.117243"
       gradientUnits="userSpaceOnUse" />
    <linearGradient
       id="StandardGradient-6"
       gradientTransform="matrix(0.9984539,0,0,0.9984539,-0.0459776,0.05767558)"
       x1="10.710332"
       y1="1.9963325"
       x2="10.710332"
       y2="18.974037"
       gradientUnits="userSpaceOnUse">
      <stop
         style="stop-color:#000000;stop-opacity:0.86274511;"
         offset="0"
         id="stop3277" />
      <stop
         style="stop-color:#000000;stop-opacity:0.47058824;"
         offset="1"
         id="stop3279" />
    </linearGradient>
    <linearGradient
       inkscape:collect="always"
       xlink:href="#StandardGradient-6"
       id="linearGradient2953"
       gradientUnits="userSpaceOnUse"
       gradientTransform="matrix(0.77744586,0,0,0.77121526,-0.55489171,-0.3761043)"
       x1="11"
       y1="3"
       x2="11"
       y2="20.117243" />
    <linearGradient
       inkscape:collect="always"
       xlink:href="#StandardGradient-6"
       id="linearGradient2955"
       gradientUnits="userSpaceOnUse"
       gradientTransform="matrix(0.77744586,0,0,0.77121526,-0.55489171,-1.3761043)"
       x1="11"
       y1="3"
       x2="11"
       y2="20.117243" />
    <linearGradient
       inkscape:collect="always"
       xlink:href="#StandardGradient-6"
       id="linearGradient3732"
       gradientUnits="userSpaceOnUse"
       gradientTransform="matrix(0.77744586,0,0,0.77121526,-0.55489171,-0.3761043)"
       x1="11"
       y1="3"
       x2="11"
       y2="20.117243" />
    <linearGradient
       inkscape:collect="always"
       xlink:href="#StandardGradient-6"
       id="linearGradient3736"
       gradientUnits="userSpaceOnUse"
       gradientTransform="matrix(0.77744586,0,0,0.77121526,-0.55489171,-1.3761043)"
       x1="11"
       y1="3"
       x2="11"
       y2="20.117243" />
    <linearGradient
       inkscape:collect="always"
       xlink:href="#StandardGradient-6"
       id="linearGradient3741"
       gradientUnits="userSpaceOnUse"
       gradientTransform="matrix(0.77744586,0,0,0.77121526,-20.554892,-1.3761043)"
       x1="11"
       y1="3"
       x2="11"
       y2="20.117243" />
    <clipPath
       clipPathUnits="userSpaceOnUse"
       id="clipPath3748">
      <path
         style="fill:#ff00ff;fill-opacity:1;stroke:none;display:inline"
         d="m -20,0 0,16 16,0 0,-16 -16,0 z M -15.5,1.46875 -12,3.9375 -8.5,1.46875 -5,3.9375 -8.5,6.625 -5,8.96875 -12,14 -19,8.96875 -15.5,6.625 -19,3.9375 -15.5,1.46875 z"
         id="path3750" />
    </clipPath>
    <linearGradient
       inkscape:collect="always"
       xlink:href="#StandardGradient-10"
       id="linearGradient3610"
       x1="9"
       y1="2"
       x2="9"
       y2="20"
       gradientUnits="userSpaceOnUse" />
    <linearGradient
       id="StandardGradient-10"
       gradientTransform="matrix(0.9984539,0,0,0.9984539,-0.0459776,0.05767558)"
       x1="10.710332"
       y1="1.9963325"
       x2="10.710332"
       y2="18.974037"
       gradientUnits="userSpaceOnUse">
      <stop
         style="stop-color:#000000;stop-opacity:0.86274511;"
         offset="0"
         id="stop3277-3" />
      <stop
         style="stop-color:#000000;stop-opacity:0.47058824;"
         offset="1"
         id="stop3279-1" />
    </linearGradient>
    <clipPath
       clipPathUnits="userSpaceOnUse"
       id="clipPath3939">
      <path
         style="fill:#ff00ff;fill-opacity:1;stroke:none;display:inline"
         d="m -20,0 0,16 16,0 0,-16 -6,0 c 0,0 0.34375,1.03125 1.84375,2.15625 1.473793,1.1053448 3.264921,3.4059022 1.96875,7.125 C -5.708984,7.941406 -6.007695,4.1870785 -10,4 l 0,8.5 c 0,0.09464 -0.01957,0.167778 -0.03125,0.21875 C -10.190193,13.994267 -11.672947,15 -13.5,15 c -1.932997,0 -3.5,-1.119288 -3.5,-2.5 0,-1.380712 1.567003,-2.5 3.5,-2.5 0.984976,0 1.863987,0.282255 2.5,0.75 L -11,0 -20,0 z"
         id="path3941"
         inkscape:connector-curvature="0" />
    </clipPath>
    <linearGradient
       inkscape:collect="always"
       xlink:href="#StandardGradient-10"
       id="linearGradient6746"
       gradientUnits="userSpaceOnUse"
       gradientTransform="translate(-3,-5)"
       x1="9"
       y1="5.059763"
       x2="9"
       y2="20" />
    <linearGradient
       inkscape:collect="always"
       xlink:href="#StandardGradient-10"
       id="linearGradient6750"
       gradientUnits="userSpaceOnUse"
       gradientTransform="translate(-3,-5)"
       x1="9"
       y1="5.059763"
       x2="9"
       y2="20" />
  </defs>
  <sodipodi:namedview
     id="base"
     pagecolor="#ffffff"
     bordercolor="#e7e7e7"
     borderopacity="1"
     inkscape:pageopacity="0.0"
     inkscape:pageshadow="2"
     inkscape:zoom="13.443361"
     inkscape:cx="-3.0547351"
     inkscape:cy="-0.41590142"
     inkscape:document-units="px"
     inkscape:current-layer="layer1"
     showgrid="true"
     inkscape:showpageshadow="false"
     showguides="true"
     inkscape:guide-bbox="true"
     inkscape:window-width="1920"
     inkscape:window-height="1028"
     inkscape:window-x="0"
     inkscape:window-y="25"
     inkscape:window-maximized="1"
     inkscape:snap-global="true">
    <sodipodi:guide
       orientation="1,0"
       position="0,112"
       id="guide2383" />
    <sodipodi:guide
       orientation="0,1"
       position="78.156291,0"
       id="guide2389" />
    <inkscape:grid
       type="xygrid"
       id="grid3672"
       visible="true"
       enabled="true" />
    <sodipodi:guide
       orientation="1,0"
       position="22.008699,4.1542523"
       id="guide2950" />
  </sodipodi:namedview>
  <metadata
     id="metadata7">
    <rdf:RDF>
      <cc:Work
         rdf:about="">
        <dc:format>image/svg+xml</dc:format>
        <dc:type
           rdf:resource="http://purl.org/dc/dcmitype/StillImage" />
        <dc:title />
      </cc:Work>
    </rdf:RDF>
  </metadata>
  <g
     inkscape:label="Calque 1"
     inkscape:groupmode="layer"
     id="layer1">
    <path
       style="opacity:1;fill:#bebebe;fill-opacity:1;stroke:none;display:inline"
       d="M 9 0 L 9 5 L 9 10 L 9 10.75 L 9 10.90625 C 8.3644832 10.35381 7.469766 10 6.5 10 C 4.560468 10 3 11.376509 3 13.0625 C 3 14.748491 4.560468 16.09375 6.5 16.09375 C 8.3183113 16.09375 9.8180259 14.912008 10 13.375 L 10 12.875 L 10 12.5 L 10 12 L 10 10 L 10 4 C 13.992305 4.1870785 14.291016 7.941406 13.8125 9.28125 C 15.108671 5.5621522 13.317543 3.2615948 11.84375 2.15625 C 10.34375 1.03125 10 0 10 0 L 9 0 z "
       id="path2834" />
  </g>
</svg>
